svg/lightbulb_outline.svg

<svg xmlns="http://www.w3.org/2000/svg" viewBox="0 0 24 24"><path d="M12 2a7 7 0 0 1 7 7c0 2.38-1.19 4.47-3 5.74V17a1 1 0 0 1-1 1H9a1 1 0 0 1-1-1v-2.26C6.19 13.47 5 11.38 5 9a7 7 0 0 1 7-7M9 21v-1h6v1a1 1 0 0 1-1 1h-4a1 1 0 0 1-1-1m3-17a5 5 0 0 0-5 5c0 2.05 1.23 3.81 3 4.58V16h4v-2.42c1.77-.77 3-2.53 3-4.58a5 5 0 0 0-5-5"/></svg>

<?xml version="1.0" encoding="UTF-8"?><!DOCTYPE svg PUBLIC "-//W3C//DTD SVG 1.1//EN" "http://www.w3.org/Graphics/SVG/1.1/DTD/svg11.dtd"><svg xmlns="http://www.w3.org/2000/svg" xmlns:xlink="http://www.w3.org/1999/xlink" version="1.1" id="mdi-lightbulb-outline" width="24" height="24" viewBox="0 0 24 24"><path d="M12,2A7,7 0 0,1 19,9C19,11.38 17.81,13.47 16,14.74V17A1,1 0 0,1 15,18H9A1,1 0 0,1 8,17V14.74C6.19,13.47 5,11.38 5,9A7,7 0 0,1 12,2M9,21V20H15V21A1,1 0 0,1 14,22H10A1,1 0 0,1 9,21M12,4A5,5 0 0,0 7,9C7,11.05 8.23,12.81 10,13.58V16H14V13.58C15.77,12.81 17,11.05 17,9A5,5 0 0,0 12,4Z" /></svg>
